X: 0205
T: Brechin Fancy - 8x32R
P: Bobers o' Brechin
C: William Marshall
B: Miss Milligan's Miscellany v.2 #0203
B: Originally Ours v.1 p.179 #MMM-0203
Z: 2019 John Chambers <jc:trillian.mit.edu>
N: Fixed rhythm of repeats by adjusting position of repeat symbols (eliminating the need fo 1st/2nd endings).
M: 4/4
L: 1/8
R: reel
K: Gm
%
|: g |\
"Gm"dgg^f g2d=f | "F"cdfg "Bb"df"A/F"cf | "Gm"dgg^f g2dg | "F"fd"F#/D7"cA "Gm"G2GB |
"Gm"dgg^f g2d=f | "F"cdfg afcf | "D7"d^fga "Gm"bag=f | "Bb"df"D7"cA "Gm"G2Gd ||
"Gm"BGdG BGd=e | "F"fdcf AFcA | "Gm"BGdG BGdg | "F"fd"F#/D7"cA "Gm"G2Gd |
"Gm"BGdG BGd=e | "F"fdcf AFcA | "Gm"GABc d=efg | "F"fd"F#/D7"cA "Gm"G2G :|
